svgs/samsung_secure_folder.svg

<svg width="192" height="192" viewBox="0 0 192 192" fill="none" xmlns="http://www.w3.org/2000/svg">
<path d="M90.0202 106.747L87.0303 128.424H103.475L100.485 106.747H90.0202Z" stroke="black" stroke-width="10" stroke-linecap="round" stroke-linejoin="round"/>
<path d="M22 160.566V44C22 37.3726 27.3726 32 34 32H89.2727C95.2525 32 93.7576 45.4545 99.7374 45.4545H170M167.01 70.8687V147.071C167.01 153.698 161.638 159.071 155.01 159.071H48.9091" stroke="black" stroke-width="12" stroke-linecap="round" stroke-linejoin="round"/>
<circle cx="95.5" cy="87.5" r="14.5" stroke="black" stroke-width="10"/>
</svg>

<svg width="192" height="192" viewBox="0 0 192 192" fill="none" xmlns="http://www.w3.org/2000/svg"><path d="m90.02 106.747-2.99 21.677h16.445l-2.99-21.677H90.02Z" stroke="#000" stroke-width="10" stroke-linecap="round" stroke-linejoin="round"/><path d="M22 160.566V44c0-6.627 5.373-12 12-12h55.273c5.98 0 4.485 13.455 10.464 13.455H170m-2.99 25.414v76.202c0 6.627-5.372 12-12 12H48.91" stroke="#000" stroke-width="12" stroke-linecap="round" stroke-linejoin="round"/><circle cx="95.5" cy="87.5" r="14.5" stroke="#000" stroke-width="10"/></svg>
